packages/katcn/src/icons/svg/medal.svg

<svg width="24" height="25" viewBox="0 0 24 25" fill="none" xmlns="http://www.w3.org/2000/svg">
<path d="M20 9.18049C20 4.84104 16.4557 1.20801 12 1.20801C7.5443 1.20801 4 4.74012 4 9.18049C4 13.5199 7.5443 17.153 12 17.153C13.0127 17.153 14.0253 16.9511 14.8354 16.6484V21.0887L12.5063 19.6759C12.2025 19.4741 11.7975 19.4741 11.4937 19.6759L9.06329 20.9878V18.1621C9.06329 17.5566 8.65823 17.153 8.05063 17.153C7.44304 17.153 7.03797 17.5566 7.03797 18.1621V21.3915C7.03797 21.997 7.34177 22.6025 7.94937 22.9053C8.55696 23.208 9.16456 23.208 9.77215 22.9053L12 21.5933L14.2278 22.9053C14.5316 23.1071 14.8354 23.208 15.1392 23.208C15.443 23.208 15.7468 23.1071 16.0506 23.0062C16.6582 22.7034 16.962 22.0979 16.962 21.4924V15.5383C18.7848 14.0245 20 11.7034 20 9.18049ZM6.02532 9.18049C6.02532 5.85021 8.65823 3.22636 12 3.22636C15.2405 3.22636 17.9747 5.85021 17.9747 9.18049C17.9747 12.5108 15.3418 15.1346 12 15.1346C8.65823 15.1346 6.02532 12.4098 6.02532 9.18049Z" fill="black"/>
</svg>

<svg xmlns="http://www.w3.org/2000/svg" fill="none" viewBox="0 0 24 25"><path fill="#000" d="M20 9.18c0-4.339-3.544-7.972-8-7.972S4 4.74 4 9.18c0 4.34 3.544 7.973 8 7.973a8.3 8.3 0 0 0 2.835-.505v4.44l-2.329-1.412a.92.92 0 0 0-1.012 0l-2.43 1.312v-2.826c0-.605-.406-1.009-1.013-1.009-.608 0-1.013.404-1.013 1.01v3.229c0 .605.304 1.21.911 1.513a1.94 1.94 0 0 0 1.823 0L12 21.593l2.228 1.312q.455.303.911.303c.304 0 .608-.1.912-.202.607-.303.911-.908.911-1.514v-5.954C18.785 14.024 20 11.703 20 9.18m-13.975 0c0-3.33 2.633-5.954 5.975-5.954 3.24 0 5.975 2.624 5.975 5.954S15.342 15.135 12 15.135A5.975 5.975 0 0 1 6.025 9.18"/></svg>
